Z/zimmerbiomet.com logo.svg

<?xml version="1.0" ?>
<svg xmlns="http://www.w3.org/2000/svg" enable-background="new 0 0 2492.8 449.1" viewBox="0 0 2492.8 449.1">
	<path d="m2417.6 141.9h-53v-18.1h128.2v18.1h-53v164.1h-22.2zm-181.7-18.2h106.3v18.1h-84.1v61.9h67.8v18.1h-67.8v66h88.7v18.2h-110.9zm-218.2 0h30.8l56.4 142 54.5-142h30.6v182.3h-22.2v-153.4l-60.3 153.4h-6.9l-62.4-153.4v153.4h-20.4zm-59.9 91.6v-2c0-40.8-23.9-74-66-74-42.3 0-66.8 31.1-66.8 74.4v2c0 44.2 29.3 74.2 67.3 74.2 40.6 0 65.5-30.6 65.5-74.6m-155.7.7v-2c0-51.8 36.2-92.6 89.7-92.6s89 40.8 89 92v2c0 51.5-35.4 92.8-88.4 92.8-53.9.1-90.3-41.2-90.3-92.2m-60.4-92.3h22.2v182.3h-22.2zm-97.8 164.9c26.5 0 38.7-11.7 38.7-33.9v-1c0-22.4-12.5-33.2-41.8-33.2h-37.2v68zm-7.1-85.3c26.7 0 36.9-9.7 36.9-32.1v-1c0-20.7-12-29-37.5-29h-32.6v62.2h33.2zm-54.9-79.6h54.8c33.9 0 58.6 11.2 58.6 47.2v1c0 16.6-6.6 31.4-27.5 38.5 26.5 6.4 36.5 19.9 36.5 43.6v1c0 34.4-23.5 51-59.9 51h-62.4v-182.3zm-171.2 85.4c26 0 40-11.2 40-33.6v-1c0-24.8-15.3-33-40-33h-34.2v67.6zm-56.4-85.4h54.8c34.9 0 63.7 14.3 63.7 50.8v1c0 30.1-20.2 44.8-45.1 49.7l55.8 80.8h-24.7l-54.3-79.3h-28v79.2h-22.2zm-144.2 0h106.3v18.1h-84.1v61.9h67.8v18.1h-67.8v66h88.7v18.2h-110.9zm-218.2 0h30.8l56.4 142 54.5-142h30.6v182.3h-22.2v-153.4l-60.4 153.4h-6.9l-62.4-153.4v153.4h-20.4zm-218.2 0h30.8l56.4 142 54.5-142h30.6v182.3h-22.2v-153.4l-60.3 153.4h-6.9l-62.4-153.4v153.4h-20.4v-182.3zm-69.3 0h22.1v182.3h-22.1zm-168.7 178.7 103.3-160.5h-94.1v-18.1h124.6v3.4l-100.4 160h98.9v18.8h-132.3z" fill="#4f4c4d"/>
	<path d="m76.1 372.3c83.3 80.4 216 78 296.3-5.3 77.6-80.4 78.4-207.6 1.9-289l-150.2 288.3c70.9-.8 130.5-53.4 140.1-123.6v129.6zm-3.7-3.7 151.7-288-1.5-.2c-74.4.2-136.4 57.2-142.7 131.3v-137.4h290.8c-39.1-38-91.5-59.3-146-59.2-125.6 0-209.7 84-209.7 209.5 0 55.8 21.9 106.4 57.4 144m152.2-368.6c124 0 224.5 100.6 224.5 224.6s-100.6 224.5-224.6 224.5-224.5-100.5-224.5-224.5c0-134 90.6-224.6 224.6-224.6" fill="#1081c5"/>
</svg>

<?xml version="1.0" ?>
<svg xmlns="http://www.w3.org/2000/svg" viewBox="0 0 2492.8 449.1">
	<style>
		.cls0 { fill: #4f4c4d; }
		.cls1 { fill: #1081c5; }
	</style>
	<rect name="schelin" fill="lightgrey" width="100%" height="100%" />
	<path d="M 2417.6,141.9 L 2364.6,141.9 L 2364.6,123.8 L 2492.8,123.8 L 2492.8,141.9 L 2439.8,141.9 L 2439.8,306.0 L 2417.6,306.0 L 2417.6,141.9 M 2235.9,123.7 L 2342.2,123.7 L 2342.2,141.8 L 2258.1,141.8 L 2258.1,203.7 L 2325.9,203.7 L 2325.9,221.8 L 2258.1,221.8 L 2258.1,287.8 L 2346.8,287.8 L 2346.8,306.0 L 2235.9,306.0 L 2235.9,123.7 M 2017.7,123.7 L 2048.5,123.7 L 2104.9,265.7 L 2159.4,123.7 L 2190.0,123.7 L 2190.0,306.0 L 2167.8,306.0 L 2167.8,152.6 L 2107.5,306.0 L 2100.6,306.0 L 2038.2,152.6 L 2038.2,306.0 L 2017.8,306.0 L 2017.7,123.7 M 1957.8,215.3 L 1957.8,213.3 C 1957.8,172.5 1933.9,139.3 1891.8,139.3 C 1849.5,139.3 1825.0,170.4 1825.0,213.7 L 1825.0,215.7 C 1825.0,259.9 1854.3,289.9 1892.3,289.9 C 1932.9,289.9 1957.8,259.3 1957.8,215.3 M 1802.1,216.0 L 1802.1,214.0 C 1802.1,162.2 1838.3,121.4 1891.8,121.4 C 1945.3,121.4 1980.8,162.2 1980.8,213.4 L 1980.8,215.4 C 1980.8,266.9 1945.4,308.2 1892.4,308.2 C 1838.5,308.3 1802.1,267.0 1802.1,216.0 M 1741.7,123.7 L 1763.9,123.7 L 1763.9,306.0 L 1741.7,306.0 L 1741.7,123.7 M 1643.9,288.6 C 1670.4,288.6 1682.6,276.9 1682.6,254.7 L 1682.6,253.7 C 1682.6,231.3 1670.1,220.5 1640.8,220.5 L 1603.6,220.5 L 1603.6,288.5 L 1643.9,288.6 M 1636.8,203.3 C 1663.5,203.3 1673.7,193.6 1673.7,171.2 L 1673.7,170.2 C 1673.7,149.5 1661.7,141.2 1636.2,141.2 L 1603.6,141.2 L 1603.6,203.4 L 1636.8,203.4 L 1636.8,203.3 M 1581.9,123.7 L 1636.7,123.7 C 1670.6,123.7 1695.3,134.9 1695.3,170.9 L 1695.3,171.9 C 1695.3,188.5 1688.7,203.3 1667.8,210.4 C 1694.3,216.8 1704.3,230.3 1704.3,254.0 L 1704.3,255.0 C 1704.3,289.4 1680.8,306.0 1644.4,306.0 L 1582.0,306.0 L 1582.0,123.7 L 1581.9,123.7 M 1410.7,209.1 C 1436.7,209.1 1450.7,197.9 1450.7,175.5 L 1450.7,174.5 C 1450.7,149.7 1435.4,141.5 1410.7,141.5 L 1376.5,141.5 L 1376.5,209.1 L 1410.7,209.1 M 1354.3,123.7 L 1409.1,123.7 C 1444.0,123.7 1472.8,138.0 1472.8,174.5 L 1472.8,175.5 C 1472.8,205.6 1452.6,220.3 1427.7,225.2 L 1483.5,306.0 L 1458.8,306.0 L 1404.5,226.7 L 1376.5,226.7 L 1376.5,305.9 L 1354.3,305.9 L 1354.3,123.7 M 1210.1,123.7 L 1316.4,123.7 L 1316.4,141.8 L 1232.3,141.8 L 1232.3,203.7 L 1300.1,203.7 L 1300.1,221.8 L 1232.3,221.8 L 1232.3,287.8 L 1321.0,287.8 L 1321.0,306.0 L 1210.1,306.0 L 1210.1,123.7 M 991.9,123.7 L 1022.7,123.7 L 1079.1,265.7 L 1133.6,123.7 L 1164.2,123.7 L 1164.2,306.0 L 1142.0,306.0 L 1142.0,152.6 L 1081.6,306.0 L 1074.7,306.0 L 1012.3,152.6 L 1012.3,306.0 L 991.9,306.0 L 991.9,123.7 M 773.7,123.7 L 804.5,123.7 L 860.9,265.7 L 915.4,123.7 L 946.0,123.7 L 946.0,306.0 L 923.8,306.0 L 923.8,152.6 L 863.5,306.0 L 856.6,306.0 L 794.2,152.6 L 794.2,306.0 L 773.8,306.0 L 773.8,123.7 L 773.7,123.7 M 704.4,123.7 L 726.5,123.7 L 726.5,306.0 L 704.4,306.0 L 704.4,123.7 M 535.7,302.4 L 639.0,141.9 L 544.9,141.9 L 544.9,123.8 L 669.5,123.8 L 669.5,127.2 L 569.1,287.2 L 668.0,287.2 L 668.0,306.0 L 535.7,306.0 L 535.7,302.4" class="cls0"/>
	<path d="M 76.1,372.3 C 159.4,452.7 292.1,450.3 372.4,367.0 C 450.0,286.6 450.8,159.4 374.3,78.0 L 224.1,366.3 C 295.0,365.5 354.6,312.9 364.2,242.7 L 364.2,372.3 L 76.1,372.3 M 72.4,368.6 L 224.1,80.6 L 222.6,80.4 C 148.2,80.6 86.2,137.6 79.9,211.7 L 79.9,74.3 L 370.7,74.3 C 331.6,36.3 279.2,15.0 224.7,15.1 C 99.1,15.1 15.0,99.1 15.0,224.6 C 15.0,280.4 36.9,331.0 72.4,368.6 M 224.6,0.0 C 348.6,0.0 449.1,100.6 449.1,224.6 C 449.1,348.6 348.5,449.1 224.5,449.1 C 100.5,449.1 2.84217e-14,348.6 2.84217e-14,224.6 C 2.84217e-14,90.6 90.6,2.84217e-14 224.6,2.84217e-14" class="cls1"/>
</svg>
